X: 23787
T: Little House Around The Corner, The
R: jig
M: 6/8
K: Dmajor
A|FDA, DFB|AFD EDB,|A,DF Adf|gfg eag|
fdB AFD|EDB, DFA|dcd eag|fdc d2:|
f/g/|afa geg|fdf ecA|dcd ede|fef efg|
afa geg|fdf ecA|dcd eag|fdc d2:|

